images/design-pic-icon.svg

<svg xmlns="http://www.w3.org/2000/svg" viewBox="0 0 99.4 99.4" enable-background="new 0 0 99.4 99.4"><style type="text/css">.st0{fill:#F37779;} .st1{fill:#68C6B5;} .st2{fill:#26A5AA;} .st3{fill:#72A79E;}</style><circle class="st0" cx="49.8" cy="50.3" r="46.3"/><path class="st1" d="M49.2 21.9l-13.4 28.7.4 26.9h25.9l.4-26.9z"/><path class="st2" d="M54.3 33l-5.1-11.1-5.2 11.1zm-17.6 45.6c.9 0 1.6-.7 1.6-1.6v-25.4c0-.9-.7-1.6-1.6-1.6-.9 0-1.6.7-1.6 1.6v25.4c0 .9.7 1.6 1.6 1.6z"/><path class="st3" d="M55.4 53.9c-2.2 0-4-.9-4.7-2.2h-.3v25.9h10v-26h-.3c-.7 1.3-2.6 2.3-4.7 2.3z"/><path class="st2" d="M49.2 78.6c.9 0 1.6-.7 1.6-1.6v-25.4c0-.9-.7-1.6-1.6-1.6-.9 0-1.6.7-1.6 1.6v25.4c0 .9.7 1.6 1.6 1.6zm12.4 0c.9 0 1.6-.7 1.6-1.6v-25.4c0-.9-.7-1.6-1.6-1.6-.9 0-1.6.7-1.6 1.6v25.4c0 .9.7 1.6 1.6 1.6z"/></svg>

<?xml version="1.0" encoding="utf-8"?>
<!-- Generator: Adobe Illustrator 18.1.1, SVG Export Plug-In . SVG Version: 6.00 Build 0)  -->
<!DOCTYPE svg PUBLIC "-//W3C//DTD SVG 1.1//EN" "http://www.w3.org/Graphics/SVG/1.1/DTD/svg11.dtd">
<svg version="1.1" id="Layer_1" xmlns="http://www.w3.org/2000/svg" xmlns:xlink="http://www.w3.org/1999/xlink" x="0px" y="0px"
	 viewBox="0 0 99.4 99.4" style="enable-background:new 0 0 99.4 99.4;" xml:space="preserve">
<style type="text/css">
	.st0{fill:#F37779;}
	.st1{fill:#68C6B5;}
	.st2{fill:#26A5AA;}
	.st3{fill:#72A79E;}
</style>
<circle class="st0" cx="49.8" cy="50.3" r="46.3"/>
<polygon class="st1" points="49.2,21.9 35.8,50.6 36.2,77.5 62.1,77.5 62.5,50.6 "/>
<polygon class="st2" points="54.3,33 49.2,21.9 44,33 "/>
<path class="st2" d="M36.7,78.6L36.7,78.6c0.9,0,1.6-0.7,1.6-1.6V51.6c0-0.9-0.7-1.6-1.6-1.6h0c-0.9,0-1.6,0.7-1.6,1.6V77
	C35.1,77.9,35.8,78.6,36.7,78.6z"/>
<path class="st3" d="M55.4,53.9c-2.2,0-4-0.9-4.7-2.2h-0.3v25.9h10V51.6h-0.3C59.4,52.9,57.5,53.9,55.4,53.9z"/>
<path class="st2" d="M49.2,78.6L49.2,78.6c0.9,0,1.6-0.7,1.6-1.6V51.6c0-0.9-0.7-1.6-1.6-1.6h0c-0.9,0-1.6,0.7-1.6,1.6V77
	C47.6,77.9,48.3,78.6,49.2,78.6z"/>
<path class="st2" d="M61.6,78.6L61.6,78.6c0.9,0,1.6-0.7,1.6-1.6V51.6c0-0.9-0.7-1.6-1.6-1.6h0c-0.9,0-1.6,0.7-1.6,1.6V77
	C60,77.9,60.7,78.6,61.6,78.6z"/>
<g>
</g>
<g>
</g>
<g>
</g>
<g>
</g>
<g>
</g>
<g>
</g>
</svg>
